X: 6299
T: Carraigín Ruadh
R: reel
M: 4/4
K: Dmajor
df f2 eBdB|AF F2 EDB,A,|dBAF DEFA|Bded BAFA|
f2 df e2 dB|AF F2 EDB,A,|B,EFE DEFA|BdAG FDD2:|
faa2 afde|faaf bfaf|gfed Bdag|f/g/a edBA F2|
[1 faa2 afde|faaf bfaf|gfef gbag|f/g/a eg fdd2:|
[2 gb (3bbb afde|f3d eB B2|Bded BAFA|dBAG FD D2||

